X:1
T:Carceris ex umbra
T:Daniel Friderici
T:Source : Bicinia sacra---Rostock---J.Richelius---1624. Editor : André Vierendeels (11/07/17)
T:Notes : Original clefs : C1, C1 Editorial accidentals above the staff
T:Carceris ex umbra
T:©
T:©
C:Daniel Friderici
Z:©
%%score [ 1 2 ]
L:1/8
Q:1/4=120
M:2/2
K:C
V:1 treble nm="Soprano 1" snm="S 1"
V:2 treble nm="Soprano 2" snm="S 2"
V:1
 G3 G A2 B2 | c4 G4 | A3 A B2 c2 | d4 B2 A2 | BG c3 B/A/ B2 | c4 A4 | A2 A4 G2 | ^F3 G A2 G2 | %8
w: Car- ce- ris ex|um- bra,|car- ce- ris ex|um- bra, ex|um- * * * * *|bra, Pe-|trum pu- er|ex- pe- dit a-|
 ^F8 :: G2 A2 B4 | c3 c d4 | G2 A3 A G2 | A2 G2 F4 | E2 F3 F E2 | F2 E2 D4 | C2 c3 c d2 | %16
w: les:|Cu- ra De-|i hu- ma-|no car- ce- re|ma- jor e-|rat, car- ce- re|ma- jor e-|rat, car- ce- re|
 e2 B2 c2 G2 | A2 E2 F2 C2 | D2 C2 D2 E2 | F4 G4 | AGAB c4- | c2 BA B3 A | BG c3 B/A/ B2 | c8 :| %24
w: ma- * * *|||* jor|e- * * * *|||rat.|
V:2
 z8 | C3 C D2 E2 | F4 E4 | D3 D E2 F2 | G8 | C4 F4 | F2 F4 G2 | D3 E ^F2 G2 | D8 :: G2 ^F2 G4 | %10
w: |Car- ce- ris ex|um- bra,|car- ce- ris ex|um-|bra, Pe-|trum pu- er|ex- pe- dit a-|les:|Cu- ra De-|
 F2 E2 D4 | C2 c3 c B2 | c2 B2 A4 | G2 A3 A G2 | A2 G2 F4 | E2 C3 C G2 | E4 C4 | F2 G2 A2 G2 | %18
w: i hu- ma-|no, car- ce re|ma- jor e-|rat, car- ce- re|ma- jor e-|rat, car- ce- re|ma- jor,|ma- * * *|
 F2 E2 F2 C2 | D4 E4 | F6 ED | E6 F2 | G8 | C8 :| %24
w: |* jor|e- * *|||rat.|

